!!!XEN: First song of the Minisino'wuck [island herb medicine]
!!!AGN: Song connected with Odjib'we's personal experience in war
!!!COM: Anonymous
!!!CNT: Native American -- Ojibway
!!!TXO: Ojibway
!!!MLC: White Earth reservation, northern Minnesota, U.S.A.
!!!MRD: 1909-1912///
!!!MPN: Na'waji'bigo'kwe ("Woman dwelling in the midst of the rocks")
**kern
*MM69
*Imale
*k[f#c#]
*clefF4
*M2/4
16f#
=1
8.f#
16f#
8.f#
16e
=2
4d
8.d
32e
32e
=3
*M3/4
8.d
16B
4B
4B
=4
4B
4B
8.B
16B
=5
*M2/4
8.A
16A
8.F#
16F#
=6
8F#
8E
8.D
32E
32E
=7
*M3/4
8.D
16BB
4BB
4BB
=8
2BB
4BB
==
*-
!!!OCL: Frances Densmore
!!!YOR: Chippewa [i.e., Ojibway] Music--II, Bulletin 53 of the Bureau of American Ethnology, Smitsonian Institution
!!!ONM: 24
!!!PPG: 103
!!!PUB: published
!!!PPR: Government Printing Office
!!!PPP: Washington, D.C.
!!!PDT: 1912///
!!!EST: missing clef changes, text, drum tempo, and drum part
!!!YEC: Copyright 1998 Paul von Hippel
!!!YEM: Rights to all derivate electronic formats reserved.
!!!EFL: 25/42
